X: 1177
T: İçimde Kim Vardır
C: Yusuf Nalkesen
O: Turkey
F: http://compmusic.upf.edu/node/140
N: huzzam--sarki--duyek--icimde_kim--yusuf_nalkesen
N: makam= huzzam
N: form= sarki
N: usul= duyek = 8/4
M: 8/4
L: 1/16
K: C _1/4B _3/4e ^3/4f 
Q: 1/4=126
%%MIDI tuningsystem comma53
c2 d4 c2 g4 f2 e2  | d2 a2 f2 ed d2 cB B4  | \
w:  İ çim *  de   |  *  kim  *  *  *  var *  *  dır   | 
z2 de d2 e2 fg2f e2 d2  | 
w:  bir  *  *  bi le *  *  bil  | 
g2 {a}g4 {a}g2 gg fe f4  | z2 a2 g2 _b2 ag gf fe ed  | \
w:  sen    |  bir  *  bi le *  *  *  bil  | 
c2 d14  | 
w:  sen    | 
G3/2A/ Bc de fg a3/2g/ f_b ag fe  | \
w:  SAZ  | 
d3/2c/ de fg fe dc B^A B4  | 
w:  SAZ  | 
c2 d4 c2 g4 f2 e2  | d2 a2 f2 ed d2 cB B4  | \
w:  İ çim *  de   |  *  kim  *  *  *  var *  *  dır   | 
z2 de d2 e2 fg2f e2 d2  | 
w:  bir  *  *  bi le *  *  bil  | 
g2 {a}g4 {a}g2 gg fe f4  | z2 a2 g2 _b2 ag gf fe ed  | \
w:  sen    |  bir  *  bi le *  *  *  bil  | 
c2 d14  | 
w:  sen    | 
G3/2A/ Bc de fg a3/2g/ f_b ag fe  | \
w:  SAZ  | 
d3/2c/ de fg ag fe dc de fg  | 
w:  SAZ  | 
a2 a2 g2 _b2 a2 {a}g2 {a}f2 {f}e2  | \
w:  *  Sen  *  se ni   | 
d2 ef e2 fg gg fe f2 e2  | d2 ga g2 _b2 a2 gf f2 ed  | 
w:  bu lur *  *  *  *  sun   |  *  kal *  *  bi me  *  *  gir  | 
c8 c3B cd ef  | g2 g2 f2 ed d2 cd d2 cB  | B16  | \
w:  sen   *  *  SAZ  |  *  kal *  bi *  me  *  *  gir  |  sen    | 
G3/2A/ Bc de fg a3/2g/ f_b ag fe  | 
w:  SAZ  | 
d3/2c/ de fg ag fe dc de fg  | a2 a2 g2 _b2 a2 {a}g2 {a}f2 {f}e2  | 
w:  SAZ  |  *  Sen  *  se ni   | 
d2 ef e2 fg gg fe f2 e2  | d2 ga g2 _b2 a2 gf f2 ed  | 
w:  bu lur *  *  *  *  sun   |  *  kal *  *  bi me  *  *  gir  | 
c8 c3B cd ef  | g2 g2 f2 ed d2 cd d2 cB  | B16  | \
w:  sen   *  *  SAZ  |  *  kal *  bi *  me  *  *  gir  |  sen    | 
G3/2A/ Bc de fg a3/2g/ f_b ag fe  | 
w:  SAZ  | 
d3/2c/ de fg ^ab c'c' ba b4  | z2 b4 b2 b4 b4  | \
w:  SAZ  |  Ben  gi bi  bir   | 
b2 c'2 b2 ^a2 b2 ag g4  | 
w:  *  yan *  *  san   | 
z2 c'2 b2 ^a2 a2 g2 g2 a2  | b16  | z2 c'2 b2 ^ag f2 gf e3d  | \
w:  bir  *  se ve *  bil  |  sen    |  bir  *  se *  ve *  *  bil  | 
c2 d14  | 
w:  sen    | 
G3/2A/ Bc de fg a3/2g/ f_b ag fe  | \
w:  SAZ  | 
d3/2c/ de fg ag fe dc de fg  | 
w:   | 
a2 a2 g2 _b2 a2 {a}g2 {a}f2 {f}e2  | \
w:  *  Sen  *  se ni   | 
d2 ef e2 fg gg fe f2 e2  | d2 ga g2 _b2 a2 gf f2 ed  | 
w:  bu lur *  *  *  *  sun   |  *  kal *  *  bi me  *  *  gir  | 
c8 c3B cd ef  | g2 g2 f2 ed d2 cd d2 cB  | B16  | |


